!!!COM: Lassus, Rudolphus
!!!CDT: 1563-1623
!!!OPR: Geistliche Psalmen mit dreyen Stimmen
!!!OTL: Quare fremuerunt gentes
!!!OTL@DE: Warumb empören sich die Haiden
!!!LIB: Ulenberg, Caspar
!!!LIB-CDT: 1548/12/24-1617/02/16
!!!AGN: Psalm, Tricinium
!!!voices: 3
**kern	**text	**kern	**text	**kern	**text
*staff3	*staff3	*staff2	*staff2	*staff1	*staff1
*Ivox	*	*Ivox	*	*Ivox	*
*I"Bassus	*	*I"Tenor	*	*I"Cantus	*
*clefC3	*	*clefC2	*	*clefG2	*
*M2/1	*	*M2/1	*	*M2/1	*
*k[]	*	*k[]	*	*k[]	*
*met(C|)	*	*met(C|)	*	*met(C|)	*
=1	=1	=1	=1	=1	=1
0r	.	1d	War-	1r	.
.	.	2d	um	1dd	War-
.	.	2d	em-	.	.
=2	=2	=2	=2	=2	=2
0r	.	2c	pö-	2a	um
.	.	2d	ren	2a	em-
.	.	2e	sich	2g	pö-
.	.	2f	die	2a	ren
=3	=3	=3	=3	=3	=3
0r	.	1e	Hai-	2b	sich
.	.	.	.	2cc	die
.	.	2.d	den	2b	Hai-
.	.	.	.	2a	den
.	.	4e	.	.	.
=4	=4	=4	=4	=4	=4
1d	War-	4f	.	2r	.
.	.	4g	.	.	.
.	.	4a	.	2ff	war-
.	.	4b	.	.	.
2d	rum	2a	.	2ff	rum
2d	em-	4r	.	2ff	em
.	.	4a	war-	.	.
=5	=5	=5	=5	=5	=5
2c	pö-	2a	um	2ee	pö-
2d	ren	2a	em-	2ff	ren
2e	sich	2g	pö-	2.cc	sich
2f	die	2a	ren	.	.
.	.	.	.	8bL	.
.	.	.	.	8aJ	.
=6	=6	=6	=6	=6	=6
1e	Hai-	2b	sich	1g	.
.	.	2cc	die	.	.
2d	den,	1b	Hai-	2r	.
2g	die	.	.	2.dd	die
=7	=7	=7	=7	=7	=7
4f	Hai-	1a	den	.	.
4e	.	.	.	4cc	.
4d	.	.	.	2ff	.
4e	.	.	.	.	.
2f	.	2r	.	2.cc	Hai
2a	den	2f	und	.	.
.	.	.	.	8bL	.
.	.	.	.	8aJ	.
==	==	==	==	==	==
*-	*-	*-	*-	*-	*-
!!!RDF**kern: l=long note in original notation
!!!RDF**kern: i=editorial accidental
!!!ENC: Wolfgang Drescher
!!!END: 2022/02/28
!!!EED: Wolfgang Drescher
!!!EEV: 2022/02/28
